public/images/brands/ayroui-light.svg

<svg fill="none" height="34" viewBox="0 0 134 34" width="134" xmlns="http://www.w3.org/2000/svg"><g fill="#fff"><path d="m13.7429 2.83333c0-1.56541 1.2769-2.83333 2.8534-2.83333h1.4267c9.4555 0 17.1204 7.61104 17.1204 17v14.1667c0 1.5654-1.2769 2.8333-2.8534 2.8333h-1.4267c-9.4554 0-17.1204-7.611-17.1204-17z" opacity=".56"/><path d="m15.1698 34.0001c7.8795 0 14.267-6.3426 14.267-14.1667 0-7.824-6.3875-14.16665-14.267-14.16665-7.87942 0-14.266968 6.34265-14.266968 14.16665 0 7.8241 6.387548 14.1667 14.266968 14.1667z" opacity=".88"/><path d="m54.6547 27.0119h4.7602l-6.683-18.5119h-5.2039l-6.6777 18.5119h4.7057l1.1064-3.2699h6.8856zm-2.2624-6.7508h-4.5465l2.2567-6.7771zm15.8093 1.2394-3.3909-9.2032h-5.0231l5.9708 14.2136-3.3688 7.4891h4.8422l9.2029-21.7027h-4.8643zm14.3519-1.3185c0-2.5315 1.238-3.2699 3.3691-3.2699h1.2324v-4.773c-1.9721 0-3.5771 1.0548-4.6015 2.6106v-2.4524h-4.4973v14.7146h4.4973zm21.1065-.5274c0-4.6675-3.309-7.5682-7.6253-7.5682-4.2836 0-7.6253 2.9007-7.6253 7.5682s3.265 7.5682 7.5761 7.5682c4.3115 0 7.6745-2.9007 7.6745-7.5682zm-10.6709 0c0-2.5052 1.4188-3.6655 3.0456-3.6655 1.5776 0 3.0514 1.1603 3.0514 3.6655 0 2.4788-1.4956 3.6655-3.1006 3.6655-1.6325 0-2.9964-1.1867-2.9964-3.6655zm20.4109.5801c0 4.773 3.1 6.9618 6.891 6.9618 3.785 0 6.913-2.1888 6.913-6.9618v-11.60284h-2.394v11.62924c0 3.3754-1.786 4.8258-4.497 4.8258-2.706 0-4.52-1.4504-4.52-4.8258v-11.62924h-2.393zm17.798 6.7772h2.388v-18.38004h-2.388z"/></g></svg>

<svg width="134" height="34" viewBox="0 0 134 34" fill="none" xmlns="http://www.w3.org/2000/svg">
<path opacity="0.56" d="M13.7429 2.83333C13.7429 1.26792 15.0198 0 16.5963 0H18.023C27.4785 0 35.1434 7.61104 35.1434 17V31.1667C35.1434 32.7321 33.8665 34 32.29 34H30.8633C21.4079 34 13.7429 26.389 13.7429 17V2.83333Z" fill="white"/>
<path opacity="0.88" d="M15.1698 34.0001C23.0493 34.0001 29.4368 27.6575 29.4368 19.8334C29.4368 12.0094 23.0493 5.66675 15.1698 5.66675C7.29038 5.66675 0.902832 12.0094 0.902832 19.8334C0.902832 27.6575 7.29038 34.0001 15.1698 34.0001Z" fill="white"/>
<path d="M54.6547 27.0119H59.4149L52.7319 8.5H47.528L40.8503 27.0119H45.556L46.6624 23.742H53.548L54.6547 27.0119ZM52.3923 20.2611H47.8458L50.1025 13.484L52.3923 20.2611ZM68.2016 21.5005L64.8107 12.2973H59.7876L65.7584 26.5109L62.3896 34H67.2318L76.4347 12.2973H71.5704L68.2016 21.5005ZM82.5535 20.182C82.5535 17.6505 83.7915 16.9121 85.9226 16.9121H87.155V12.1391C85.1829 12.1391 83.5779 13.1939 82.5535 14.7497V12.2973H78.0562V27.0119H82.5535V20.182ZM103.66 19.6546C103.66 14.9871 100.351 12.0864 96.0347 12.0864C91.7511 12.0864 88.4094 14.9871 88.4094 19.6546C88.4094 24.3221 91.6744 27.2228 95.9855 27.2228C100.297 27.2228 103.66 24.3221 103.66 19.6546ZM92.9891 19.6546C92.9891 17.1494 94.4079 15.9891 96.0347 15.9891C97.6123 15.9891 99.0861 17.1494 99.0861 19.6546C99.0861 22.1334 97.5905 23.3201 95.9855 23.3201C94.353 23.3201 92.9891 22.1334 92.9891 19.6546ZM113.4 20.2347C113.4 25.0077 116.5 27.1965 120.291 27.1965C124.076 27.1965 127.204 25.0077 127.204 20.2347V8.63186H124.81V20.2611C124.81 23.6365 123.024 25.0869 120.313 25.0869C117.607 25.0869 115.793 23.6365 115.793 20.2611V8.63186H113.4V20.2347ZM131.198 27.0119H133.586V8.63186H131.198V27.0119Z" fill="white"/>
</svg>
